app/dist/common/images/vigil-neuroscience.svg

<svg height="18" viewBox="0 0 18 18" width="18" xmlns="http://www.w3.org/2000/svg"><path d="m0 0h18v18h-18z" fill="#f0f3fa"/><path d="m6 13.38a5.23 5.23 0 0 1 -2.4-4.38 5.3 5.3 0 0 1 2.4-4.33l-.26-.67a5.96 5.96 0 0 0 -.07 10zm6 0c1.4-.9 2.4-2.52 2.4-4.38a5.3 5.3 0 0 0 -2.4-4.33l.26-.67a5.96 5.96 0 0 1 .07 10z" fill="#37c6f4"/><path d="m5.88 6h-.88v.88h1.2l2.3 6.12h.89l2.61-7h-.89l-2.17 5.83-2.18-5.83z" fill="#6b6c6c"/></svg>

<!-- by TradingView --><svg width="18" height="18" viewBox="0 0 18 18" xmlns="http://www.w3.org/2000/svg"><path fill="#F0F3FA" d="M0 0h18v18H0z"/><path d="M6 13.38A5.23 5.23 0 0 1 3.6 9 5.3 5.3 0 0 1 6 4.67L5.74 4a5.96 5.96 0 0 0-.07 10l.33-.62ZM12 13.38c1.4-.9 2.4-2.52 2.4-4.38A5.3 5.3 0 0 0 12 4.67l.26-.67a5.96 5.96 0 0 1 .07 10l-.33-.62Z" fill="#37C6F4"/><path d="M5.88 6H5v.88h1.2L8.5 13h.89L12 6h-.89l-2.17 5.83L6.76 6h-.88Z" fill="#6B6C6C"/></svg>
